X:1
T:the Duchess of Richmond
T:the Duchess of Richmond
T:William Marshall
C:William Marshall
%%score { ( 1 2 ) 3 }
L:1/8
M:4/4
K:Bb
V:1 treble 
V:2 treble 
V:3 bass 
V:1
 f | (ed)cA BF B2 | dfga bfdB |{d} e2 d=B cG c2 | cdef gedc | (Bc/d/) BF BF B2 | Bcde fbdB | %7
 Egfe dfdB | FBAc [DB]2 [DB] |] f | bBaB gBfB | dfga bfdB | c(f=ef) d(fef) | dbag f=edc | %14
 d<B (c/B/A/B/) F<B (c/B/A/B/) | GBFB EBDB | Egfe dfdB | FBAc [DB]2 [DB] |] %18
V:2
 x | x8 | x8 | x8 | x8 | x8 | x8 | x8 | D2 F2 x3 |] x | x8 | x8 | A2 x2 B2 x2 | x8 | x8 | x8 | x8 | %17
 D2 E2 x3 |] %18
V:3
 z | [B,,,B,,]2 [B,,,B,,]2 [B,,,B,,]2 [B,,,B,,]2 | [B,,,B,,]2 [B,,,B,,]2 [B,,,B,,]2 [B,,,B,,]2 | %3
 [C,,C,]2 [D,,D,]2 [E,,E,]2 [E,,E,]2 | [C,,C,]2 [C,,C,]2 [C,,C,]2 [F,,F,]2 | %5
 [B,,,B,,]2 [B,,,B,,]2 [B,,,B,,]2 [B,,,B,,]2 | [B,,,B,,]2 [B,,,B,,]2 [B,,,B,,]2 [B,,,B,,]2 | %7
 [E,,E,]2 [E,,E,]2 [B,,B,]2 [B,,B,]2 | [F,,F,]2 [F,,F,]2 [B,,B,]2 [B,,B,] |] z | %10
 [B,,G,]2 [B,,F,]2 [B,,E,]2 [B,,D,]2 | [B,,B,]2 [B,,B,]2 [B,,B,]2 [B,,B,]2 | %12
 [B,,B,]2 [F,,F,]2 [B,,B,]2 [F,,F,]2 | [B,,B,]2 [B,,B,]2 [A,,A,]2 [F,,F,]2 | %14
 [F,B,D]2 [F,B,D]2 [D,F,B,]2 [D,F,B,]2 | [E,B,]2 [E,B,]2 [C,B,]2 [B,,B,]2 | %16
 [E,,E,]2 [E,,E,]2 [B,,B,]2 [B,,B,]2 | [F,,F,]2 [F,,,F,,]2 [B,,B,]2 [B,,B,] |] %18

